X: 81
T: Preludium Es-dur
C: Maria Szymanowska
%%abc-version 2.0
%%abcx-abcm2ps-target-version 5.9.1 (29 Sep 2008)
%%abc-creator hum2abc beta
%%abcx-conversion-date 2021/10/04 07:38:41
%%abc-edited-by Anna Matuszewska
%%abcx-initial-encoding-date 2020-07-20
%%humdrum-veritas 2465773402
%%humdrum-veritas-data 3354185032
%%linebreak <none>
%%barnumbers 0
L: 1/8
M: 4/4
N: Derived from pl-kozmzk--mzk-m-31--008_szymanowska-maria--preludium-es-dur.krn
%%staves {1 2}
V: 1 clef=treble
V: 2 clef=bass
K: Eb
[V:1] (3EGB (3bGg (3BGB (3AFB | 
[V:2] z2G,>B,!accent!E2D2 & E,8 | 
[V:1] (3EGB (3bGg (3BGB (3AFB | 
[V:2] z2G,>B,!accent!E2D2 & E,8 | 
[V:1] (3GEB (3AFB (3GEB (3AFB | 
[V:2] z2!accent!_C>B,z2!accent!C3/B,/ & E,4E,4 | 
[V:1] (3EGB (3bGg (3=EGB (3c'Bc' | 
[V:2] z2[G,2B,2E2]z2[G,2B,2=E2] & E,4E,4 | 
[V:1] (3Acf (3c'Aa (3cAc (3BGc | 
[V:2] z2A,>C!accent!F2=E2 & F,8 | 
[V:1] (3Acf (3c'Aa (3cAc (3BGc' | 
[V:2] z2A,>C!accent!F2=E2 & F,8 | 
[V:1] (3[fa]cc' (3[gb]cc' (3[fa]cc' (3[fa]Bb | 
[V:2] {/F,}F2{/C,}=E2{/C,}F2{/B,,}D2 | 
[V:1] (3[eg]Bb (3[fa]Bb (3[eg]Bb (3[df]Gg | 
[V:2] {/B,,}E2{/B,,}D2{/B,,}E2{/=B,,}D2 | 
[V:1] (3[ce]Gg (3[ce]Ff (3[Bd]Ff (3[EG]Cc | 
[V:2] {/C,}C2{/=A,,}C2{/B,,}B,2{/E,,}E,2 | 
[V:1] (3B,DFf2(3A,CEf2 | 
[V:2] z2(3z !accent!_G,F,z2(3z !accent!_G,F, & F,,4F,,4 | 
[V:1] (3B,DF (3fDd (3FDF (3ECF | 
[V:2] z2D,>F,B,2=A,2 & B,,8 | 
[V:1] (3B,DF (3fDd (3FDF (3ECF | 
[V:2] z2D,>F,B,2=A,2 & B,,8 | 
[V:1] (3DB,F (3ECF (3DB,F (3ECF | 
[V:2] z2!accent!_G,>F,z2!accent!G,3/F,/ & B,,4B,,4 | 
[V:1] (3B,DF (3fDf (3=B,DF (3gFg | 
[V:2] z2[D,2F,2B,2]z2[D,2G,2=B,2] & B,,4G,,4 | 
[V:1] (3EGc (3gEe (3GEG (3FDG | 
[V:2] z2E,>G,C2=B,2 & C,8 | 
[V:1] (3EGc (3gEe (3GEG (3FDg | 
[V:2] z2E,>G,C2=B,2 & C,8 | 
[V:1] (3[ce]Gg (3[df]Gg (3[ce]Gg (3[df]Gg | 
[V:2] {/C,}C2{/G,,}!accent!=B,2{/G,,}C2{/G,,}!accent!=B,2 | 
[V:1] (3[ce]Gg (3[ce]Ff (3[Bd]Ff (3[Bd]Ee | 
[V:2] {/G,,}C2{/=A,,}C2{/B,,}_B,2{/G,,}B,2 | 
[V:1] (3[=Ac]Ee (3[Ac]Dd (3[GB]Dd (3[GB]Cc | 
[V:2] {/=A,,}=A,2{/^F,,}A,2{/G,,}G,2{/=E,,}=E,2 | 
[V:1] (3F=Ac (3c'=Aa (3cAc (3BGc | 
[V:2] z2=A,,>C,F,2=E,2 & F,,8 | 
[V:1] (3F=Ac (3c'Aa (3cAc (3BGc | 
[V:2] z2=A,,>C,F,2=E,2 & F,,8 | 
[V:1] (3[F=A]Cc (3[GB]Cc (3[FA]Cc (3[GB]Cc | 
[V:2] {/F,,}F,2{/C,,}=E,2{/C,,}F,2{/C,,}E,2 | 
[V:1] (3[F_A]Cc (3[GB]Cc (3[FA]Cc (3[GB]Cc | 
[V:2] {/C,,}F,2{/C,,}=E,2{/C,,}F,2{/C,,}E,2 | 
[V:1] (3[FA]Cc (3[FA]Cc (3[FA]_D_d (3[FA]Dd | 
[V:2] F,4F,,4 | 
[V:1] (3[_GB]D_d (3[GB]Dd (3[=EB]Dd (3[EB]Dd | 
[V:2] _G,,4=G,,4 | 
[V:1] (3_DFA!accent!a2(3CE_G!accent!a2 | 
[V:2] z2(3z !accent!__B,A,z2(3z !accent!B,A, & A,,4A,,4 | 
[V:1] (3_DFA (3aFf (3AFA (3_GEA | 
[V:2] z2F,>A,_D2C2 & _D,8 | 
[V:1] (3_DFA (3aFf (3AFA (3_GEA | 
[V:2] z2F,>A,_D2C2 & _D,8 | 
[V:1] (3F_DA (3_GEA (3FDA (3GEA | 
[V:2] z2__B,>A,z2B,3/A,/ & _D,4D,4 | 
[V:1] (3_DFA (3aFa (3=DFA (3bAb | 
[V:2] z2[F,2A,2_D2]z2[F,2A,2=D2] & _D,4B,,4 | 
[V:1] (3E_GB (3b_G_g (3BGe (3=AFf | 
[V:2] E,2_G,>B, E z[F,2C2E2][K:clef=treble] | 
[V:1] (3B_df (3f'f_d' (3bfd' (3=bgg' | 
[V:2] B,2_D>F !wedge!B z[G,2D2F2] | 
[V:1] (3egc' (3g'ge' (3c'gg' (3d'bb' | 
[V:2] C2E>G c z[B2f2a2] | 
[V:1] (3[e'g']bb' (3[f'a']bb' (3[e'g']bb' (3[f'a']bb' | 
[V:2] [eg] z[K:clef=bass] {/B,,}D2{/B,,}E2{/B,,}D2 | 
[V:1] (3[e'g']bb' (3[d'f']gg' (3[c'e']gg' (3[c'e']ff' | 
[V:2] {/C,}E2{/=B,,}!accent!D2{/C,}E2{/=A,,}!accent!C2 | 
[V:1] (3egbb'2(3dfab'2 | 
[V:2] z2(3z !accent!CB,z2(3z !accent!_CB, & B,,4B,,4 | 
[V:1] (3EGB (3bGg (3BGB (3AFB | 
[V:2] z2G,>B,E2D2 & E,8 | 
[V:1] (3EGB (3bGg (3BGB (3AFB | 
[V:2] z2G,>B,E2D2 & E,8 | 
[V:1] (3GEB (3AFB (3GEB (3AFB | 
[V:2] z2_C>B,z2_C3/B,/ & E,4E,4 | 
[V:1] (3EGB (3bGb (3=EGB (3c'Bc' | 
[V:2] z2[G,2B,2E2]z2[G,2B,2=E2] & E,4C,4 | 
[V:1] (3Acf (3c'Aa (3cAc (3BGc | 
[V:2] z2A,>CF2=E2 & F,8 | 
[V:1] (3Acf (3c'Aa (3cAc (3BGc' | 
[V:2] z2A,>CF2=E2 & F,8 | 
[V:1] (3[fa]cc' (3[gb]cc' (3[fa]cc' (3[fa]Bb | 
[V:2] {/F,}F2{/C,}=E2{/C,}F2{/B,,}D2 | 
[V:1] (3[eg]Bb (3[df]Gg (3[ce]Gg (3[ce]Ff | 
[V:2] {/B,,}_E2{/=B,,}D2{/C,}C2{/=A,,}C2 | 
[V:1] (3EGBb2(3DFAb2 | 
[V:2] z2(3z _CB,z2(3z _CB, & B,,4B,,4 | 
[V:1] (3EGB (3bGg (3BGB (3AFB | 
[V:2] z2G,>B,E2D2 & E,8 | 
[V:1] (3EGB (3bGg (3BGB (3AFB | 
[V:2] z2G,>B,E2D2 & E,8 | 
[V:1] (3GEB (3AFB (3GEB (3AFB | 
[V:2] z2_C>B,z2C3/B,/ & E,4E,4 | 
[V:1] (3EGB (3^fgd (3e=AB (3^FGD | 
[V:2] E,4z4 | 
[V:1] (3E=A,B,x2x2x2 | 
[V:2] z2(3!accent!^F,G,D, (3!accent!E,=A,,B,, (3!accent!^F,,G,, D,, | 
[V:1] !fermata!z8 |]  
[V:2] !fermata!E,,8 |]  


